img/features-images/cow.svg

<?xml version="1.0" encoding="utf-8"?>
<!-- Generator: Adobe Illustrator 16.0.0, SVG Export Plug-In . SVG Version: 6.00 Build 0)  -->
<!DOCTYPE svg PUBLIC "-//W3C//DTD SVG 1.1//EN" "http://www.w3.org/Graphics/SVG/1.1/DTD/svg11.dtd">
<svg version="1.1" id="Cow_1_" xmlns="http://www.w3.org/2000/svg" xmlns:xlink="http://www.w3.org/1999/xlink" x="0px" y="0px"
	 width="512px" height="512px" viewBox="0 0 512 512" enable-background="new 0 0 512 512" xml:space="preserve">
<circle id="Background_5_" fill="#1BA555" cx="256" cy="256" r="256"/>
<path id="Shadow" opacity="0.1" d="M512,256c0-3.6-0.094-7.178-0.24-10.742l-53.047-53.046H220.756v317.362
	C232.279,511.161,244.041,512,256,512C397.386,512,512,397.386,512,256z"/>
<g id="Cow">
	<path fill="#EFF0F0" d="M170.653,190.686c0,0-24.522-31.322-43.987-31.322c-14.196,0-75.581,0-107.779,0
		C6.722,189.184,0,221.805,0,256c0,130.469,97.601,238.137,223.771,253.986l52.131-52.132L170.653,190.686z"/>
	<polygon opacity="0.1" points="83.892,229.615 209.668,355.392 209.668,229.615 	"/>
	<path opacity="0.8" d="M131.32,399.565H44.021c37.447,55.185,95.88,94.96,163.83,107.894c2.939-8.394,4.556-17.408,4.556-26.805
		C212.408,435.87,176.104,399.565,131.32,399.565z"/>
	<path opacity="0.1" d="M258.533,413.766l-84.747,84.746c16.009,5.426,32.73,9.307,49.984,11.475l52.131-52.132L258.533,413.766z"/>
	<path fill="#EFF0F0" d="M402.228,167.786c-19.847,0-31.679,17.938-31.679,17.938l-52.287-27.098l-17.938-17.938
		c0,0-10.114-7.251-40.075-7.251c-29.96,0-40.074,7.251-40.074,7.251l-17.938,17.938l-52.288,27.098
		c0,0-11.832-17.938-31.678-17.938c-49.616,0-56.486,24.426-56.486,24.426c0,17.557,32.06,52.192,51.143,58.299
		c9.461,3.027,23.613-3.096,35.479-3.721l17.048,3.578c0,0,6.727,76.952,9.303,92.982c2.543,15.826,24.808,60.685,35.113,93.126
		c10.305,32.441,50.379,28.243,50.379,28.243s40.075,4.198,50.38-28.243s32.569-77.3,35.113-93.126
		c2.576-16.03,9.303-92.982,9.303-92.982l17.048-3.578c11.865,0.625,26.018,6.749,35.479,3.721
		c19.083-6.107,51.143-40.743,51.143-58.299C458.713,192.212,451.844,167.786,402.228,167.786z"/>
	<path opacity="0.8" d="M402.228,167.786c-19.847,0-31.679,17.938-31.679,17.938l-51.891-26.892l0,0
		C302.098,210.548,269.6,323.735,269.6,341.824c0,10.877,11.236,27.121,13.311,30.771c2.073,3.65,13.191,5.415,15.887,9.017
		c2.695,3.603,3.721,11.164,3.721,11.164h-42.269h-0.001h-42.269c0,0,1.026-7.562,3.721-11.164
		c2.695-3.602,13.813-5.366,15.887-9.017c2.074-3.65,13.31-19.895,13.31-30.771c0-18.089-32.499-131.277-49.059-182.993l0,0
		l-51.891,26.892c0,0-11.832-17.938-31.678-17.938c-49.616,0-56.486,24.426-56.486,24.426c0,17.557,32.06,52.192,51.143,58.299
		c9.461,3.027,23.613-3.096,35.479-3.721l17.048,3.578c0,0,6.727,76.952,9.303,92.982c2.543,15.826,24.808,60.685,35.113,93.126
		c10.305,32.441,50.379,28.243,50.379,28.243s40.075,4.198,50.38-28.243s32.569-77.3,35.113-93.126
		c2.576-16.03,9.303-92.982,9.303-92.982l17.048-3.578c11.865,0.625,26.018,6.749,35.479,3.721
		c19.083-6.107,51.143-40.743,51.143-58.299C458.713,192.212,451.844,167.786,402.228,167.786z"/>
	<g>
		<circle fill="#231F20" cx="181.531" cy="261.675" r="10.877"/>
		<circle fill="#231F20" cx="338.966" cy="261.675" r="10.877"/>
	</g>
	<path fill="#EBAC7C" d="M220.757,388.196c0,0,11.439-8.73,39.491-8.73c28.053,0,39.492,8.73,39.492,8.73
		s0.583,60.827-39.492,60.827C220.174,449.023,220.757,388.196,220.757,388.196z"/>
	<g opacity="0.1">
		<g>
			<g>
				<path d="M299.74,388.196c0,0-11.439-8.73-39.492-8.73v69.558C300.323,449.023,299.74,388.196,299.74,388.196z"/>
			</g>
		</g>
	</g>
	<g>
		<path fill="#231F20" d="M220.757,388.196c5.725,0,2.481,9.923,5.725,13.167s13.358,8.588,13.358,16.984
			s-2.29,11.736-13.931,11.736C214.269,430.084,215.986,388.196,220.757,388.196z"/>
		<path fill="#231F20" d="M299.74,388.196c-5.726,0-2.481,9.923-5.726,13.167s-13.357,8.588-13.357,16.984
			s2.29,11.736,13.931,11.736S304.511,388.196,299.74,388.196z"/>
	</g>
	<g>
		<path opacity="0.3" fill="#FFFFFF" d="M127.683,212.44c-5.438-8.874-28.892-6.584-28.892-6.584l31.182,23.759
			C129.973,229.615,133.121,221.314,127.683,212.44z"/>
		<path opacity="0.3" fill="#FFFFFF" d="M392.814,212.44c5.438-8.874,28.892-6.584,28.892-6.584l-31.182,23.759
			C390.524,229.615,387.376,221.314,392.814,212.44z"/>
	</g>
	<path opacity="0.8" d="M65.203,322.73v-18.932c0-34.583-28.5-62.883-64.6-65.281C0.213,244.296,0,250.123,0,256
		c0,44.539,11.381,86.417,31.383,122.896C51.642,367.452,65.203,346.585,65.203,322.73z"/>
</g>
</svg>

<svg width="512" height="512" viewBox="0 0 512 512" fill="none" xmlns="http://www.w3.org/2000/svg">
<g clip-path="url(#clip0_344_264)">
<path d="M256 512C397.385 512 512 397.385 512 256C512 114.615 397.385 0 256 0C114.615 0 0 114.615 0 256C0 397.385 114.615 512 256 512Z" fill="#E4C1F9"/>
<path opacity="0.1" d="M512 256C512 252.4 511.906 248.822 511.76 245.258L458.713 192.212H220.756V509.574C232.279 511.161 244.041 512 256 512C397.386 512 512 397.386 512 256Z" fill="black"/>
<path d="M170.653 190.686C170.653 190.686 146.131 159.364 126.666 159.364C112.47 159.364 51.085 159.364 18.887 159.364C6.722 189.184 0 221.805 0 256C0 386.469 97.601 494.137 223.771 509.986L275.902 457.854L170.653 190.686Z" fill="#EFF0F0"/>
<path opacity="0.1" d="M83.892 229.615L209.668 355.392V229.615H83.892Z" fill="black"/>
<path opacity="0.8" d="M131.32 399.565H44.021C81.468 454.75 139.901 494.525 207.851 507.459C210.79 499.065 212.407 490.051 212.407 480.654C212.408 435.87 176.104 399.565 131.32 399.565Z" fill="black"/>
<path opacity="0.1" d="M258.533 413.766L173.786 498.512C189.795 503.938 206.516 507.819 223.77 509.987L275.901 457.855L258.533 413.766Z" fill="black"/>
<path d="M402.228 167.786C382.381 167.786 370.549 185.724 370.549 185.724L318.262 158.626L300.324 140.688C300.324 140.688 290.21 133.437 260.249 133.437C230.289 133.437 220.175 140.688 220.175 140.688L202.237 158.626L149.949 185.724C149.949 185.724 138.117 167.786 118.271 167.786C68.655 167.786 61.785 192.212 61.785 192.212C61.785 209.769 93.845 244.404 112.928 250.511C122.389 253.538 136.541 247.415 148.407 246.79L165.455 250.368C165.455 250.368 172.182 327.32 174.758 343.35C177.301 359.176 199.566 404.035 209.871 436.476C220.176 468.917 260.25 464.719 260.25 464.719C260.25 464.719 300.325 468.917 310.63 436.476C320.935 404.035 343.199 359.176 345.743 343.35C348.319 327.32 355.046 250.368 355.046 250.368L372.094 246.79C383.959 247.415 398.112 253.539 407.573 250.511C426.656 244.404 458.716 209.768 458.716 192.212C458.713 192.212 451.844 167.786 402.228 167.786Z" fill="#EFF0F0"/>
<path opacity="0.8" d="M402.228 167.786C382.381 167.786 370.549 185.724 370.549 185.724L318.658 158.832C302.098 210.548 269.6 323.735 269.6 341.824C269.6 352.701 280.836 368.945 282.911 372.595C284.984 376.245 296.102 378.01 298.798 381.612C301.493 385.215 302.519 392.776 302.519 392.776H260.25H260.249H217.98C217.98 392.776 219.006 385.214 221.701 381.612C224.396 378.01 235.514 376.246 237.588 372.595C239.662 368.945 250.898 352.7 250.898 341.824C250.898 323.735 218.399 210.547 201.839 158.831L149.948 185.723C149.948 185.723 138.116 167.785 118.27 167.785C68.6541 167.785 61.7841 192.211 61.7841 192.211C61.7841 209.768 93.8441 244.403 112.927 250.51C122.388 253.537 136.54 247.414 148.406 246.789L165.454 250.367C165.454 250.367 172.181 327.319 174.757 343.349C177.3 359.175 199.565 404.034 209.87 436.475C220.175 468.916 260.249 464.718 260.249 464.718C260.249 464.718 300.324 468.916 310.629 436.475C320.934 404.034 343.198 359.175 345.742 343.349C348.318 327.319 355.045 250.367 355.045 250.367L372.093 246.789C383.958 247.414 398.111 253.538 407.572 250.51C426.655 244.403 458.715 209.767 458.715 192.211C458.713 192.212 451.844 167.786 402.228 167.786Z" fill="black"/>
<path d="M181.531 272.552C187.538 272.552 192.408 267.682 192.408 261.675C192.408 255.668 187.538 250.798 181.531 250.798C175.524 250.798 170.654 255.668 170.654 261.675C170.654 267.682 175.524 272.552 181.531 272.552Z" fill="#231F20"/>
<path d="M338.966 272.552C344.973 272.552 349.843 267.682 349.843 261.675C349.843 255.668 344.973 250.798 338.966 250.798C332.959 250.798 328.089 255.668 328.089 261.675C328.089 267.682 332.959 272.552 338.966 272.552Z" fill="#231F20"/>
<path d="M220.757 388.196C220.757 388.196 232.196 379.466 260.248 379.466C288.301 379.466 299.74 388.196 299.74 388.196C299.74 388.196 300.323 449.023 260.248 449.023C220.174 449.023 220.757 388.196 220.757 388.196Z" fill="#EBAC7C"/>
<g opacity="0.1">
<path d="M299.74 388.196C299.74 388.196 288.301 379.466 260.248 379.466V449.024C300.323 449.023 299.74 388.196 299.74 388.196Z" fill="black"/>
</g>
<path d="M220.757 388.196C226.482 388.196 223.238 398.119 226.482 401.363C229.726 404.607 239.84 409.951 239.84 418.347C239.84 426.743 237.55 430.083 225.909 430.083C214.269 430.084 215.986 388.196 220.757 388.196Z" fill="#231F20"/>
<path d="M299.74 388.196C294.014 388.196 297.259 398.119 294.014 401.363C290.769 404.607 280.657 409.951 280.657 418.347C280.657 426.743 282.947 430.083 294.588 430.083C306.229 430.083 304.511 388.196 299.74 388.196Z" fill="#231F20"/>
<path opacity="0.3" d="M127.683 212.44C122.245 203.566 98.791 205.856 98.791 205.856L129.973 229.615C129.973 229.615 133.121 221.314 127.683 212.44Z" fill="white"/>
<path opacity="0.3" d="M392.814 212.44C398.252 203.566 421.706 205.856 421.706 205.856L390.524 229.615C390.524 229.615 387.376 221.314 392.814 212.44Z" fill="white"/>
<path opacity="0.8" d="M65.203 322.73V303.798C65.203 269.215 36.703 240.915 0.603 238.517C0.213 244.296 0 250.123 0 256C0 300.539 11.381 342.417 31.383 378.896C51.642 367.452 65.203 346.585 65.203 322.73Z" fill="black"/>
</g>
<defs>
<clipPath id="clip0_344_264">
<rect width="512" height="512" fill="white"/>
</clipPath>
</defs>
</svg>
